www/assets/icons/upload.svg

<svg width="24" height="24" viewBox="0 0 24 24" xmlns="http://www.w3.org/2000/svg" fill='currentColor'><path d="M5 20.5H19V18.5H5V20.5ZM5 10.5H9V16.5H15V10.5H19L12 3.5L5 10.5Z"/></svg>

<svg xmlns="http://www.w3.org/2000/svg" width="24" height="24" viewBox="0 0 24 24" fill='currentColor'><path d="M5 20.5h14v-2H5zm0-10h4v6h6v-6h4l-7-7z"/></svg>
